actions/48/view-refresh.svg

<?xml version="1.0" encoding="UTF-8" standalone="no"?>
<svg
   xmlns:dc="http://purl.org/dc/elements/1.1/"
   xmlns:cc="http://creativecommons.org/ns#"
   xmlns:rdf="http://www.w3.org/1999/02/22-rdf-syntax-ns#"
   xmlns:svg="http://www.w3.org/2000/svg"
   xmlns="http://www.w3.org/2000/svg"
   xmlns:xlink="http://www.w3.org/1999/xlink"
   version="1.1"
   width="48"
   height="48"
   id="svg2474">
  <defs
     id="defs2476">
    <linearGradient
       id="linearGradient8838">
      <stop
         id="stop8840"
         style="stop-color:#000000;stop-opacity:1"
         offset="0" />
      <stop
         id="stop8842"
         style="stop-color:#000000;stop-opacity:0"
         offset="1" />
    </linearGradient>
    <radialGradient
       cx="62.625"
       cy="4.625"
       r="10.625"
       fx="62.625"
       fy="4.625"
       id="radialGradient3533"
       xlink:href="#linearGradient8838"
       gradientUnits="userSpaceOnUse"
       gradientTransform="matrix(1,0,0,0.341176,0,3.047059)" />
    <linearGradient
       id="linearGradient3533">
      <stop
         id="stop3535"
         style="stop-color:#b0cce6;stop-opacity:1"
         offset="0" />
      <stop
         id="stop3545"
         style="stop-color:#83acd5;stop-opacity:1"
         offset="1" />
    </linearGradient>
    <linearGradient
       x1="15.372947"
       y1="5.0471625"
       x2="15.372947"
       y2="22.599676"
       id="linearGradient3573"
       xlink:href="#linearGradient3533"
       gradientUnits="userSpaceOnUse"
       gradientTransform="matrix(0.9543659,0,0,0.9543659,0.4933039,2.8946347)" />
    <linearGradient
       id="linearGradient3266">
      <stop
         id="stop3268"
         style="stop-color:#387ab8;stop-opacity:1"
         offset="0" />
      <stop
         id="stop3270"
         style="stop-color:#387ab8;stop-opacity:0"
         offset="1" />
    </linearGradient>
    <linearGradient
       x1="33.686768"
       y1="35.773647"
       x2="37.039948"
       y2="29.856804"
       id="linearGradient3272"
       xlink:href="#linearGradient3266"
       gradientUnits="userSpaceOnUse" />
    <linearGradient
       id="linearGradient3276">
      <stop
         id="stop3278"
         style="stop-color:#83acd5;stop-opacity:1"
         offset="0" />
      <stop
         id="stop3280"
         style="stop-color:#83acd5;stop-opacity:0"
         offset="1" />
    </linearGradient>
    <linearGradient
       x1="31.226292"
       y1="34.600941"
       x2="34.96563"
       y2="26.842505"
       id="linearGradient3282"
       xlink:href="#linearGradient3276"
       gradientUnits="userSpaceOnUse" />
    <linearGradient
       id="linearGradient4873">
      <stop
         id="stop4875"
         style="stop-color:#ffffff;stop-opacity:1"
         offset="0" />
      <stop
         id="stop4877"
         style="stop-color:#ffffff;stop-opacity:0"
         offset="1" />
    </linearGradient>
    <linearGradient
       x1="21.628975"
       y1="2.1102102"
       x2="22.245434"
       y2="43.366352"
       id="linearGradient3567"
       xlink:href="#linearGradient4873"
       gradientUnits="userSpaceOnUse"
       gradientTransform="matrix(0.9543659,0,0,0.9543659,0.4933039,2.8946347)" />
    <linearGradient
       id="linearGradient3319">
      <stop
         id="stop3321"
         style="stop-color:#ffffff;stop-opacity:0"
         offset="0" />
      <stop
         id="stop3323"
         style="stop-color:#ffffff;stop-opacity:0.14383562"
         offset="0.57424062" />
      <stop
         id="stop3325"
         style="stop-color:#ffffff;stop-opacity:0"
         offset="1" />
    </linearGradient>
    <linearGradient
       x1="33.386703"
       y1="41.887085"
       x2="39.686337"
       y2="28.50532"
       id="linearGradient3317"
       xlink:href="#linearGradient3319"
       gradientUnits="userSpaceOnUse"
       gradientTransform="matrix(0.9543659,0,0,0.9543659,0.4933039,2.8946347)" />
  </defs>
  <metadata
     id="metadata2479">
    <rdf:RDF>
      <cc:Work
         rdf:about="">
        <dc:format>image/svg+xml</dc:format>
        <dc:type
           rdf:resource="http://purl.org/dc/dcmitype/StillImage" />
      </cc:Work>
    </rdf:RDF>
  </metadata>
  <g
     id="layer1">
    <path
       d="m 73.25,4.625 a 10.625,3.625 0 1 1 -21.25,0 10.625,3.625 0 1 1 21.25,0 z"
       transform="matrix(2.149872,0,0,2.5636643,-110.63573,26.84977)"
       id="path8836"
       style="opacity:0.3;fill:url(#radialGradient3533);fill-opacity:1;fill-rule:evenodd;stroke:none;stroke-width:0.99999988;marker:none;visibility:visible;display:inline;overflow:visible" />
    <path
       d="m 23.828332,33.831672 c -4.894952,-0.05388 -8.93571,-4.723167 -8.881593,-9.596431 0.05412,-4.873262 4.442989,-9.064661 9.337944,-9.010782 2.36391,0.02602 4.654297,0.785332 6.352073,2.423126 l -4.404257,4.061613 16.018276,0 c 0,0 0,-15.8058548 0,-15.8058548 L 38.028897,10.10953 C 34.320671,6.4655361 30.034152,4.5561514 24.561278,4.4959126 13.427719,4.3733674 4.5481647,13.442896 4.4250734,24.527122 4.3019822,35.611347 13.160807,44.280977 24.294366,44.403521"
       id="path3372"
       style="fill:url(#linearGradient3573);fill-opacity:1;stroke:#387ab8;stroke-width:1;stroke-linecap:butt;stroke-linejoin:round;stroke-miterlimit:4;stroke-opacity:1;stroke-dasharray:none" />
    <path
       d="m 23.864113,44.401664 c 9.310119,0.102473 19.728816,-7.091093 19.712061,-19.52578 l -9.859131,-0.07674 c -0.181508,5.072466 -5.499282,9.216746 -9.919703,9.027858"
       id="path3453"
       style="fill:url(#linearGradient3282);fill-opacity:1;stroke:url(#linearGradient3272);stroke-width:1;stroke-linecap:butt;stroke-linejoin:miter;stroke-miterlimit:4;stroke-opacity:1;stroke-dasharray:none" />
    <path
       d="m 23.797732,34.846272 c -5.423155,-0.07929 -9.986427,-4.239795 -9.992131,-10.521335 -0.0049,-5.396381 5.110795,-10.342472 10.533951,-10.263186 2.673075,0.03908 5.968651,1.188438 7.982437,3.465252 l -3.235604,3.079554 12.07035,0.02029 c 0,0 0,-12.0722053 0,-12.0722053 L 38.0018,11.791087 C 34.459778,7.840187 29.935527,5.818175 24.395124,5.7627334 13.797337,5.6566839 5.6738667,14.03615 5.5919732,24.633904 5.8510448,36.489643 14.984754,43.252661 24.294516,43.455396"
       id="path3370"
       style="opacity:0.4;fill:none;stroke:url(#linearGradient3567);stroke-width:1.19299996;stroke-linecap:butt;stroke-linejoin:miter;stroke-miterlimit:4;stroke-opacity:1;stroke-dasharray:none" />
    <path
       d="m 23.932221,43.168072 c 7.952554,0 18.585773,-5.406453 18.685963,-18.260886 l -8.056886,-0.206291 c 0.0072,5.215907 -5.559449,10.101408 -11.122699,10.266355"
       id="path2557"
       style="fill:none;stroke:url(#linearGradient3317);stroke-width:1.1929574;stroke-linecap:butt;stroke-linejoin:round;stroke-miterlimit:4;stroke-opacity:1;stroke-dasharray:none" />
  </g>
</svg>

<svg xmlns="http://www.w3.org/2000/svg" xmlns:xlink="http://www.w3.org/1999/xlink" viewBox="0 0 48 48"><defs><linearGradient id="a"><stop offset="0"/><stop offset="1" stop-opacity="0"/></linearGradient><radialGradient cx="62.625" cy="4.625" r="10.625" fx="62.625" fy="4.625" id="g" xlink:href="#a" gradientUnits="userSpaceOnUse" gradientTransform="matrix(1 0 0 .34118 0 3.047)"/><linearGradient id="b"><stop offset="0" stop-color="#b0cce6"/><stop offset="1" stop-color="#83acd5"/></linearGradient><linearGradient x1="15.373" y1="5.047" x2="15.373" y2="22.6" id="h" xlink:href="#b" gradientUnits="userSpaceOnUse" gradientTransform="translate(.493 2.895) scale(.95437)"/><linearGradient id="c"><stop offset="0" stop-color="#387ab8"/><stop offset="1" stop-color="#387ab8" stop-opacity="0"/></linearGradient><linearGradient x1="33.687" y1="35.774" x2="37.04" y2="29.857" id="j" xlink:href="#c" gradientUnits="userSpaceOnUse"/><linearGradient id="d"><stop offset="0" stop-color="#83acd5"/><stop offset="1" stop-color="#83acd5" stop-opacity="0"/></linearGradient><linearGradient x1="31.226" y1="34.601" x2="34.966" y2="26.843" id="i" xlink:href="#d" gradientUnits="userSpaceOnUse"/><linearGradient id="e"><stop offset="0" stop-color="#fff"/><stop offset="1" stop-color="#fff" stop-opacity="0"/></linearGradient><linearGradient x1="21.629" y1="2.11" x2="22.245" y2="43.366" id="k" xlink:href="#e" gradientUnits="userSpaceOnUse" gradientTransform="translate(.493 2.895) scale(.95437)"/><linearGradient id="f"><stop offset="0" stop-color="#fff" stop-opacity="0"/><stop offset=".574" stop-color="#fff" stop-opacity=".144"/><stop offset="1" stop-color="#fff" stop-opacity="0"/></linearGradient><linearGradient x1="33.387" y1="41.887" x2="39.686" y2="28.505" id="l" xlink:href="#f" gradientUnits="userSpaceOnUse" gradientTransform="translate(.493 2.895) scale(.95437)"/></defs><path d="M73.25 4.625a10.625 3.625 0 1 1-21.25 0 10.625 3.625 0 1 1 21.25 0z" transform="matrix(2.14987 0 0 2.56366 -110.636 26.85)" opacity=".3" fill="url(#g)" fill-rule="evenodd" overflow="visible"/><path d="M23.828 33.832c-4.895-.054-8.935-4.723-8.88-9.597.053-4.873 4.442-9.064 9.337-9.01 2.364.025 4.654.785 6.352 2.423l-4.405 4.06h16.02V5.904L38.03 10.11c-3.71-3.643-7.997-5.553-13.47-5.613-11.13-.124-20.01 8.946-20.134 20.03-.123 11.084 8.736 19.754 19.87 19.877" fill="url(#h)" stroke="#387ab8" stroke-linejoin="round"/><path d="M23.864 44.402c9.31.102 19.73-7.09 19.712-19.526l-9.86-.077c-.18 5.07-5.498 9.214-9.92 9.025" fill="url(#i)" stroke="url(#j)"/><path d="M23.798 34.846c-5.423-.08-9.987-4.24-9.992-10.52-.005-5.397 5.11-10.344 10.534-10.264 2.673.04 5.968 1.188 7.982 3.465l-3.236 3.08 12.07.02V8.555l-3.154 3.236c-3.542-3.95-8.066-5.97-13.607-6.025-10.598-.106-18.72 8.273-18.803 18.87.26 11.857 9.393 18.62 18.703 18.822" opacity=".4" fill="none" stroke="url(#k)" stroke-width="1.193"/><path d="M23.932 43.168c7.953 0 18.586-5.406 18.686-18.26L34.56 24.7c.008 5.217-5.558 10.102-11.12 10.267" fill="none" stroke="url(#l)" stroke-width="1.193" stroke-linejoin="round"/></svg>
